X: 08068
T: MAGGIE MURPHY'S REEL
C: Bob McQuillen 8 Jan 91
B: Bob's Note Book 8 #68
%R: reel
Z: 2021 John Chambers <jc:trillian.mit.edu>
M: C
L: 1/8
K: D
A,B, \
| D2FD B,DA,B, | DFAB AFEF | D2FD B,DA,B, | DFAF EDB,A, |\
| D2FD B,DA,B, | DFAB AFED | FABd fedB | AFDF ED :|
|: DF \
| A2FD ED de | fafd edBd | A2FD EDFE | DFED B,A,DF |\
| A2FD ED de | fafd edBd | AFAd BAdB | AFEF D2 :|
%%begintext align
%% Maggie did
%% such a great job with the sound at the
%% Fiddle Tunes Dance Camp that April & I went
%% to back in '84 (?), that I thought she should have
%% a tune - ESPECIALLY with a name like Maggie Murphy!
%% Love to you, Maggie --
%%endtext

%%sep 1 1 500

%%sep 1 1 500

